client/assets/img/icon-profile.svg

<svg width="10" height="22" viewBox="0 0 10 22" xmlns="http://www.w3.org/2000/svg"><title>Slice 1</title><path d="M8.75 7.875h-7.5c-.352.014-.645.144-.88.39-.233.246-.357.553-.37.922v6.563h2.5v3.938c.013.37.137.676.37.922.235.246.528.376.88.39h2.5c.352-.014.645-.144.88-.39.233-.246.357-.553.37-.922V15.75H10V9.187c-.013-.37-.137-.676-.37-.922-.235-.246-.528-.376-.88-.39zm0 6.563H7.5v-2.626H6.25v7.876h-2.5v-7.875H2.5v2.624H1.25v-5.25h7.5v5.25zm0-10.5c-.026-1.122-.39-2.05-1.094-2.79C6.953.41 6.068.028 5 0 3.932.027 3.047.41 2.344 1.148c-.703.74-1.068 1.668-1.094 2.79.026 1.12.39 2.05 1.094 2.79.703.737 1.588 1.12 2.656 1.147 1.068-.027 1.953-.41 2.656-1.148.703-.74 1.068-1.668 1.094-2.79zM5 6.562c-.716-.013-1.31-.266-1.777-.758-.47-.492-.71-1.115-.723-1.867.013-.75.254-1.374.723-1.866.468-.49 1.06-.744 1.777-.757.716.013 1.31.266 1.777.758.47.493.71 1.116.723 1.868-.013.75-.254 1.374-.723 1.866-.468.492-1.06.745-1.777.758z" fill="#FFF" fill-rule="evenodd"/></svg>

<?xml version="1.0" encoding="UTF-8" standalone="no"?>
<svg width="10px" height="21px" viewBox="0 0 10 21" version="1.1" xmlns="http://www.w3.org/2000/svg" xmlns:xlink="http://www.w3.org/1999/xlink" xmlns:sketch="http://www.bohemiancoding.com/sketch/ns">
    <!-- Generator: Sketch 3.4.4 (17249) - http://www.bohemiancoding.com/sketch -->
    <title>Untitled 9</title>
    <desc>Created with Sketch.</desc>
    <defs></defs>
    <g id="Page-1" stroke="none" stroke-width="1" fill="none" fill-rule="evenodd" sketch:type="MSPage">
        <g id="icon-profile" sketch:type="MSLayerGroup" fill="#FFFFFF">
            <path d="M8.75,7.875 L1.25,7.875 C0.898,7.889 0.605,8.019 0.37,8.265 C0.137,8.511 0.013,8.818 0,9.187 L0,15.75 L2.5,15.75 L2.5,19.688 C2.513,20.058 2.637,20.364 2.87,20.61 C3.105,20.856 3.398,20.986 3.75,21 L6.25,21 C6.602,20.986 6.895,20.856 7.13,20.61 C7.363,20.364 7.487,20.057 7.5,19.688 L7.5,15.75 L10,15.75 L10,9.187 C9.987,8.817 9.863,8.511 9.63,8.265 C9.395,8.019 9.102,7.889 8.75,7.875 L8.75,7.875 Z M8.75,14.438 L7.5,14.438 L7.5,11.812 L6.25,11.812 L6.25,19.688 L3.75,19.688 L3.75,11.813 L2.5,11.813 L2.5,14.437 L1.25,14.437 L1.25,9.187 L8.75,9.187 L8.75,14.437 L8.75,14.438 Z M8.75,3.938 C8.724,2.816 8.36,1.888 7.656,1.148 C6.953,0.41 6.068,0.028 5,0 C3.932,0.027 3.047,0.41 2.344,1.148 C1.641,1.888 1.276,2.816 1.25,3.938 C1.276,5.058 1.64,5.988 2.344,6.728 C3.047,7.465 3.932,7.848 5,7.875 C6.068,7.848 6.953,7.465 7.656,6.727 C8.359,5.987 8.724,5.059 8.75,3.937 L8.75,3.938 Z M5,6.562 C4.284,6.549 3.69,6.296 3.223,5.804 C2.753,5.312 2.513,4.689 2.5,3.937 C2.513,3.187 2.754,2.563 3.223,2.071 C3.691,1.581 4.283,1.327 5,1.314 C5.716,1.327 6.31,1.58 6.777,2.072 C7.247,2.565 7.487,3.188 7.5,3.94 C7.487,4.69 7.246,5.314 6.777,5.806 C6.309,6.298 5.717,6.551 5,6.564 L5,6.562 Z" id="Shape" sketch:type="MSShapeGroup"></path>
        </g>
    </g>
</svg>
